svgs/light/mug-marshmallows.svg

<svg xmlns="http://www.w3.org/2000/svg" viewBox="0 0 512 512"><!--! Font Awesome Pro 6.6.0 by @fontawesome - https://fontawesome.com License - https://fontawesome.com/license (Commercial License) Copyright 2024 Fonticons, Inc. --><path d="M357.7 103c6.6 6.6 10.3 15.6 10.3 25l-32 0c0-.9-.3-1.7-1-2.3L277.2 67.8c-2.4-2.4-5.7-3.8-9.2-3.8s-6.7 1.4-9.2 3.8L201 125.7c-.6 .6-1 1.5-1 2.3l-32 0c0-9.4 3.7-18.3 10.3-25l57.9-57.9C244.6 36.7 256.1 32 268 32s23.4 4.7 31.8 13.2L357.7 103zM64 80l0 48-32 0 0-48c0-26.5 21.5-48 48-48l124.1 0-32 32L80 64c-8.8 0-16 7.2-16 16zM32 384c0 35.3 28.7 64 64 64l192 0c35.3 0 64-28.7 64-64l0-192-16 0-208 0 0 80c0 8.8-7.2 16-16 16s-16-7.2-16-16l0-80-64 0 0 192zm0-224l80 0 224 0 16 0 48 0c61.9 0 112 50.1 112 112s-50.1 112-112 112l-16 0c0 53-43 96-96 96L96 480c-53 0-96-43-96-96L0 192c0-17.7 14.3-32 32-32zM384 352l16 0c44.2 0 80-35.8 80-80s-35.8-80-80-80l-16 0 0 160z"/></svg>

<svg xmlns="http://www.w3.org/2000/svg" viewBox="0 0 512 512"><!--! Font Awesome Pro 6.4.2 by @fontawesome - https://fontawesome.com License - https://fontawesome.com/license (Commercial License) Copyright 2023 Fonticons, Inc. --><path d="M357.7 103c6.6 6.6 10.3 15.6 10.3 25H336c0-.9-.3-1.7-1-2.3L277.2 67.8c-2.4-2.4-5.7-3.8-9.2-3.8s-6.7 1.4-9.2 3.8L201 125.7c-.6 .6-1 1.5-1 2.3H168c0-9.4 3.7-18.3 10.3-25l57.9-57.9C244.6 36.7 256.1 32 268 32s23.4 4.7 31.8 13.2L357.7 103zM64 80v48H32V80c0-26.5 21.5-48 48-48H204.1l-32 32H80c-8.8 0-16 7.2-16 16zM32 384c0 35.3 28.7 64 64 64H288c35.3 0 64-28.7 64-64V192H336 128v80c0 8.8-7.2 16-16 16s-16-7.2-16-16V192H32V384zm0-224h80H336h16 48c61.9 0 112 50.1 112 112s-50.1 112-112 112H384c0 53-43 96-96 96H96c-53 0-96-43-96-96V192c0-17.7 14.3-32 32-32zM384 352h16c44.2 0 80-35.8 80-80s-35.8-80-80-80H384V352z"/></svg>
